X:539
T:Stella Splendens
Z:Jack Campin, http://www.campin.me.uk/
F:Jack Campin's Nine-Note Tunebook
% last edit 05-03-2013
S:Llibre Vermell de Montserrat
M:C|
L:1/8
Q:1/2=88
V:1
V:2 transpose -12
K:DDor
[V:1] z2|A2AG A2F2|D2F2 G4|_BAFG E2D2|F2G2 [1 GF D2   |C6   :|\
                                           [2 GF DE/C/|D4 z2||
[V:2] z2|D4   D2F2|A2D2 C4| F4   G2A2|D2C2 [1 G2 A2   |c6   :|\
                                           [2 F2 G2   |A4 z2||
%
[V:1] D2 |D2 A2 B2d2|B2cA G2B2|c2A2 GFFE|[1 D4 z2:|\
                                         [2 D6   ||
[V:2] A2-|A2 D4   D2|G2F2 E4  |C2D2 F2G2|[1 A4 z2:|\
                                         [2 A6   ||
%
[V:1] z2|A2AG A2F2|D2F2 G4|_BAFG E2D2|F2G2 [1 GF D2   |C6:|\
                                           [2 GF DE/C/|D6|]
[V:2] z2|D4   D2F2|A2D2 C4| F4   G2A2|D2C2 [1 G2 A2   |c6:|\
                                           [2 F2 G2   |A6|]

